X: 43327
T: Worcester, The
R: hornpipe
M: 4/4
K: Gmajor
|:(DF)|G2 (3GGG GBd(B|cd)ef g(fge)|d(BGB) d(BGB)|cAF(A cA)FA|
G2 (3GGG GBdB|cde(f gf)ge|dg(ed BGA)(F|G2)GF G2:|
|:(Bc)|d(BdB) GBdg|ece(c AB)cA|d(BdB) GBdB|A(GFE) D2(Bc)|
d(BdB) GBdB|cde(f gf)ge|dgf(d B)GA(F|G2)GF G2:|

